X:1
T:Title
%%score { 1 | ( 2 3 ) }
L:1/8
Q:1/4=100
M:4/4
K:Ab
V:1 treble nm="Grand Piano"
V:2 bass 
V:3 bass 
V:1
 [Ec]2 [DB][CA] [CE] [CA]3 | [CA][DG][EA]B c4 | e2 cB [CA]2 [Ec]2 | [=DB][DF][DG][DA] [EB]4 | %4
w: G.~C.~Stebbins * * * *||||
 [Ec]2 [DB][CA] [CE] [CA]3 | [Ec][EA][EB][_Gc] [Fd]4 | [Ee]2 [Ee]d c A3 | cBAG [CA]4 | %8
w: ||||
 [CE] [CE]2 [CE] [DF] [CE]3 | [CA][DG][EA]B c4 | c c2 c d c3 | ecBA B4 | %12
w: ||||
 [Ec]2 [DB][CA] [CE] [CA]3 | [Ec][EA][EB][_Gc] [Fd]4 | [Ee] [Ee]2 d c A3 | cBAG [CA]4 |] %16
w: ||||
V:2
 [A,,A,]2 [A,,A,][A,,A,] [A,,A,] [A,,E,]3 | [A,,E,][B,,E,][C,A,][E,G,E] [A,E]4 | %2
 [A,CE]2 [E,A,E][E,G,D] [A,,A,]2 [A,,A,]2 | [B,,F,][B,,A,][B,,G,][B,,F,] [E,G,]4 | %4
 [A,,A,]2 [A,,A,][A,,A,] [A,,A,] [A,,E,]3 | [A,,A,][C,A,][B,,G,][A,,A,] [D,A,]4 | %6
 [C,A,]2 [C,A,][E,G,E] [A,E] [F,A,C]3 | [D,F,E][D,F,D][E,A,C][E,B,D] [A,,A,]4 | %8
 [A,,A,] [A,,A,]2 [A,,A,] [A,,A,] [A,,A,]3 | [A,,E,][B,,E,][C,A,][E,G,E][K:treble] [A,E]4 | %10
 [A,E] [A,E]2 [A,E] [A,F][K:bass] [A,E]3 | E2 z2 z4 | [A,,A,]2 [A,,A,][A,,A,] [A,,A,] [A,,E,]3 | %13
 [A,,A,][C,A,][B,,G,][A,,A,] [D,A,]4 | [C,A,] [C,A,]2 [E,G,E] [A,E] [F,A,C]3 | %15
 [D,F,E][D,F,D][E,A,C][E,B,D] [A,,A,]4 |] %16
V:3
 x8 | x8 | x8 | x8 | x8 | x8 | x8 | x8 | x8 | x4[K:treble] x4 | x5[K:bass] x3 | %11
 [A,C]A,[G,B,E][F,B,=D] [E,G,_D]4 | x8 | x8 | x8 | x8 |] %16

